X:1
T:The Music of the Soul
T:The Music of the Soul
T:Charles Hutchinson Gabriel
T:George J. Runion, 1899
T:Public Domain Courtesy of the Cyber Hymnal™
T:Public Domain Courtesy of the Cyber Hymnal™
C:Charles Hutchinson Gabriel
Z:Public Domain
Z:Courtesy of the Cyber Hymnal™
%%score ( 1 2 ) ( 3 4 )
L:1/8
Q:1/4=105
M:4/4
K:Eb
V:1 treble 
V:2 treble 
V:3 bass 
V:4 bass 
V:1
 [EG]>[FA] | [GB]2 ([EG]>[FA]) [GB]2 (c>d) | [Ge]4 [GB]2 [GB]>[Ge] | (d2 A2) (c2 F2) | %4
w: 1.~There’s a|song my * heart is *|sing- ing As I|jour- * ney *|
w: 2.~There’s a|song my * heart is *|sing- ing As I|do * my *|
w: 3.~There’s a|song my * heart is *|sing- ing, As I|tri- * umph *|
w: 4.~There’s a|song my * heart is *|sing- ing And I|can- * not *|
 B6 [EG]>[FA] | [GB]2 ([EG]>[FA]) [GB]2 (c>d) | [Ge]4 [GB]2 [GB]>[Ge] | ([Fd]2 [DF]2) (c2 F2) | %8
w: day by day;|Thro’ my * soul the *|words are ring- ing,|“I’ll * go *|
w: Mas- ter’s will,|To my * life true *|glad- ness bring- ing,|As * I *|
w: o- ver sin,|While I * to the *|cross am cling- ing,|Hop- * ing *|
w: tell the joy|Je- sus * to my *|soul is bring- ing,|While * His *|
 B6 ||"^Refrain" [Ac]>[Ad] | [Ge]2 [Ge]2 [Ad]2 [Ac]2 x2 | [GB]6 c>B | B6 x2 | B4 G2 [Ac]>[Ad] | %14
w: with|thee all|the way.” * *||||
w: hear|His “Peace,|be still.” ’Tis the|mu- * *|sic|born of love, Pre-|
w: still|the crown|to win. * *||||
w: work|my thoughts|em- ploy. * *||||
 [Ge]2 [Ge]2 [Ad]2 [Ac]2 x2 | [GB]6 [Ge]>[EG] | [EB]2 [EB]2 [Dc]2 [DB]2 | E6 |] %18
w: ||||
w: cious gift from a-|bove, Sing, my|soul, in ec- sta-|sy,|
w: ||||
w: ||||
V:2
 x2 | x6 A2 | x8 | F4 D4 | E2 D2 E2 x2 | x6 A2 | x8 | x4 E4 | D2 E2 F2 || x2 | x10 | x8 | %12
 A2 A2 (A2 c>B) | E2 A2 x4 | x10 | x8 | x8 | E6 |] %18
V:3
 [E,B,]>[E,B,] | [E,E]2 [E,B,]2 [E,E]2 [E,B,]2 | [E,B,]4 [E,E]2 [E,E]>[E,B,] | [B,,B,]4 [A,B,]4 | %4
 [G,B,]2 [F,A,]2 [E,G,]2 [E,B,]>[E,B,] | [E,E]2 [E,B,]2 [E,E]2 [E,B,]2 | %6
 [E,B,]4 [E,E]2 [E,E]>[E,B,] | [F,B,]4 [F,=A,]4 | [B,,B,]2 [B,,C]2 [B,,D]2 || B,>B, | %10
 B,2 B,2 (A,B,) x4 | E6 z2 | [F,D]2 [D,B,]2 [B,,D]2 z2 | [G,E]2 [F,D]2 [E,E]2 B,>B, | %14
 B,2 B,2 (A,B,) x4 | E6 [E,B,]>[E,B,] | [B,,G,]2 [B,,G,]2 [B,,A,]2 [B,,A,]2 | [E,G,]6 |] %18
V:4
 x2 | x8 | x8 | x8 | x8 | x8 | x8 | x8 | x6 || B,>B, | E,4 E,4 (CD) | (E,2 E,2 E,2) x2 | x8 | %13
 x6 B,>B, | E,4 E,4 (CD) | (E,2 E,2 E,2) x2 | x8 | x6 |] %18

